packages/icons/general/LocalBackup.svg

<svg xmlns="http://www.w3.org/2000/svg" width="64" height="64" fill="none" viewBox="0 0 64 64">
    <g filter="url(#filter0_b_8651_6028)">
        <path fill="#1C68F3" fill-opacity="0.1" d="M10.6665 29.5873C10.6665 26.5015 13.3013 24 16.5516 24H47.4481C50.6983 24 53.3332 26.5015 53.3332 29.5873V47.746C53.3332 50.8318 50.6983 53.3333 47.4481 53.3333H16.5516C13.3013 53.3333 10.6665 50.8318 10.6665 47.746V29.5873Z"/>
    </g>
    <path fill="#1C68F3" fill-rule="evenodd" stroke="#1C68F3" stroke-linecap="round" stroke-linejoin="round" stroke-width="0.2" d="M17.5663 11.1823C18.0978 11.1823 18.5287 11.6131 18.5287 12.1446V18.8809H25.2649C25.7964 18.8809 26.2273 19.3117 26.2273 19.8432C26.2273 20.3747 25.7964 20.8055 25.2649 20.8055H17.5663C17.0349 20.8055 16.604 20.3747 16.604 19.8432V12.1446C16.604 11.6131 17.0349 11.1823 17.5663 11.1823Z" clip-rule="evenodd"/>
    <path fill="#1C68F3" fill-rule="evenodd" stroke="#1C68F3" stroke-linecap="round" stroke-linejoin="round" stroke-width="0.2" d="M37.7759 25.2188C37.7759 24.6873 38.2067 24.2565 38.7382 24.2565H46.4368C46.9683 24.2565 47.3991 24.6873 47.3991 25.2188V32.9174C47.3991 33.4489 46.9683 33.8798 46.4368 33.8798C45.9053 33.8798 45.4745 33.4489 45.4745 32.9174V26.1812H38.7382C38.2067 26.1812 37.7759 25.7503 37.7759 25.2188Z" clip-rule="evenodd"/>
    <path fill="#1C68F3" fill-rule="evenodd" stroke="#1C68F3" stroke-linecap="round" stroke-linejoin="round" stroke-width="0.2" d="M28.4584 9.58535C30.5317 8.95283 32.723 8.88457 34.8281 9.38693C36.9331 9.88929 38.8831 10.9459 40.4963 12.4582C42.1094 13.9704 43.3331 15.8891 44.053 18.035C44.2341 18.5747 43.9661 19.1671 43.4544 19.3581C42.9427 19.549 42.3811 19.2664 42.2 18.7266C41.5908 16.9108 40.5554 15.2874 39.1905 14.0078C37.8255 12.7281 36.1754 11.8341 34.3943 11.409C32.6131 10.9839 30.7589 11.0417 29.0046 11.5769C27.2503 12.1121 25.6532 13.1073 24.3622 14.4697C24.3549 14.4773 24.3476 14.4849 24.3401 14.4923L18.2598 20.5184C17.8643 20.9104 17.2423 20.89 16.8706 20.4728C16.4989 20.0556 16.5183 19.3996 16.9138 19.0075L22.9831 12.9923C24.5068 11.3883 26.3902 10.2163 28.4584 9.58535ZM47.1319 24.5817C47.5035 24.9989 47.4842 25.6549 47.0886 26.047L41.0194 32.0621C39.4956 33.6662 37.6122 34.8382 35.544 35.4692C33.4708 36.1017 31.2794 36.1699 29.1744 35.6676C27.0694 35.1652 25.1193 34.1086 23.5062 32.5963C21.893 31.0841 20.6694 29.1654 19.9494 27.0195C19.7683 26.4798 20.0364 25.8874 20.5481 25.6964C21.0597 25.5055 21.6213 25.7881 21.8024 26.3279C22.4116 28.1437 23.447 29.7671 24.812 31.0467C26.177 32.3264 27.827 33.2204 29.6082 33.6455C31.3893 34.0706 33.2436 34.0128 34.9978 33.4776C36.7521 32.9424 38.3493 31.9472 39.6403 30.5848C39.6475 30.5772 39.6549 30.5696 39.6624 30.5622L45.7426 24.5361C46.1382 24.1441 46.7602 24.1645 47.1319 24.5817Z" clip-rule="evenodd"/>
    <g filter="url(#filter1_b_8651_6028)">
        <path fill="#1C68F3" fill-opacity="0.05" d="M10.6665 34.386C10.6665 31.5955 13.3013 29.3333 16.5516 29.3333H47.4481C50.6983 29.3333 53.3332 31.5955 53.3332 34.386V48.2807C53.3332 51.0712 50.6983 53.3333 47.4481 53.3333H16.5516C13.3013 53.3333 10.6665 51.0712 10.6665 48.2807V34.386Z"/>
    </g>
    <defs>
        <filter id="filter0_b_8651_6028" width="50.6665" height="37.3333" x="6.6665" y="20" color-interpolation-filters="sRGB" filterUnits="userSpaceOnUse">
            <feFlood flood-opacity="0" result="BackgroundImageFix"/>
            <feGaussianBlur in="BackgroundImage" stdDeviation="2"/>
            <feComposite in2="SourceAlpha" operator="in" result="effect1_backgroundBlur_8651_6028"/>
            <feBlend in="SourceGraphic" in2="effect1_backgroundBlur_8651_6028" mode="normal" result="shape"/>
        </filter>
        <filter id="filter1_b_8651_6028" width="48.6665" height="30" x="7.6665" y="26.3333" color-interpolation-filters="sRGB" filterUnits="userSpaceOnUse">
            <feFlood flood-opacity="0" result="BackgroundImageFix"/>
            <feGaussianBlur in="BackgroundImage" stdDeviation="1.5"/>
            <feComposite in2="SourceAlpha" operator="in" result="effect1_backgroundBlur_8651_6028"/>
            <feBlend in="SourceGraphic" in2="effect1_backgroundBlur_8651_6028" mode="normal" result="shape"/>
        </filter>
    </defs>
</svg>

<svg width="60" height="60" viewBox="0 0 60 60" xmlns="http://www.w3.org/2000/svg">
<g>
        <g filter="url(#filter0_b)">
            <path
                d="M10.666 29.587c0-3.085 2.635-5.587 5.886-5.587h30.896c3.25 0 5.885 2.502 5.885 5.587v18.159c0 3.086-2.635 5.587-5.885 5.587H16.552c-3.25 0-5.886-2.501-5.886-5.587V29.587z"
                fill="#1C68F3"
                fill-opacity=".1"
            />
        </g>
        <path
            fill-rule="evenodd"
            clip-rule="evenodd"
            d="M17.566 11.182c.532 0 .963.431.963.963v6.736h6.736a.962.962 0 110 1.924h-7.699a.962.962 0 01-.962-.962v-7.698c0-.532.43-.963.962-.963zM37.776 25.219c0-.532.43-.963.962-.963h7.699c.531 0 .962.431.962.963v7.698a.962.962 0 11-1.925 0v-6.736h-6.736a.962.962 0 01-.962-.962z"
            fill="#1C68F3"
            stroke="#1C68F3"
            stroke-width=".2"
            stroke-linecap="round"
            stroke-linejoin="round"
        />
        <path
            fill-rule="evenodd"
            clip-rule="evenodd"
            d="M28.458 9.585c2.074-.632 4.265-.7 6.37-.198a12.555 12.555 0 015.668 3.071 13.537 13.537 0 013.557 5.577c.181.54-.087 1.132-.599 1.323-.511.191-1.073-.092-1.254-.631a11.455 11.455 0 00-3.01-4.72 10.623 10.623 0 00-4.796-2.598 10.27 10.27 0 00-5.39.168 10.708 10.708 0 00-4.664 2.915l-6.08 6.026a.947.947 0 01-1.39-.045 1.077 1.077 0 01.044-1.465l6.07-6.016a12.654 12.654 0 015.474-3.407zm18.674 14.997a1.077 1.077 0 01-.043 1.465l-6.07 6.015a12.655 12.655 0 01-5.475 3.407c-2.073.633-4.265.7-6.37.199a12.554 12.554 0 01-5.668-3.072 13.537 13.537 0 01-3.557-5.576c-.18-.54.087-1.133.6-1.324.51-.19 1.072.092 1.253.632a11.455 11.455 0 003.01 4.719 10.623 10.623 0 004.796 2.598c1.781.426 3.636.368 5.39-.167a10.708 10.708 0 004.664-2.916l6.08-6.026a.947.947 0 011.39.046z"
            fill="#1C68F3"
            stroke="#1C68F3"
            stroke-width=".2"
            stroke-linecap="round"
            stroke-linejoin="round"
        />
        <g filter="url(#filter1_b)">
            <path
                d="M10.666 34.386c0-2.79 2.635-5.053 5.886-5.053h30.896c3.25 0 5.885 2.263 5.885 5.053v13.895c0 2.79-2.635 5.052-5.885 5.052H16.552c-3.25 0-5.886-2.262-5.886-5.052V34.386z"
                fill="#1C68F3"
                fill-opacity=".05"
            />
        </g>
        <defs>
            <filter
                id="filter0_b"
                x="6.667"
                y="20"
                width="50.667"
                height="37.333"
                filter-units="userSpaceOnUse"
                color-interpolation-filters="sRGB">
                <feFlood flood-opacity="0" result="BackgroundImageFix" />
                <feGaussianBlur in="BackgroundImage" std-deviation="2" />
                <feComposite in2="SourceAlpha" operator="in" result="effect1_backgroundBlur" />
                <feBlend in="SourceGraphic" in2="effect1_backgroundBlur" result="shape" />
            </filter>
            <filter
                id="filter1_b"
                x="7.667"
                y="26.333"
                width="48.667"
                height="30"
                filter-units="userSpaceOnUse"
                color-interpolation-filters="sRGB">
                <feFlood flood-opacity="0" result="BackgroundImageFix" />
                <feGaussianBlur in="BackgroundImage" std-deviation="1.5" />
                <feComposite in2="SourceAlpha" operator="in" result="effect1_backgroundBlur" />
                <feBlend in="SourceGraphic" in2="effect1_backgroundBlur" result="shape" />
            </filter>
        </defs>
    </g>
</svg>
